X:1
T:All people that on earth (Ps 100)
T:John Dowland
T:Source : The Whole Book of Psalms---London---Musical Antquarian Society---1844. First publication : London---Th.Est(e)---1592. Editor : André Vierendeels (09/09/16).
T:All people that on earth (Ps 100)
T:©
T:©
T:©
C:John Dowland
Z:©
%%score [ 1 2 3 4 ]
L:1/8
Q:1/4=100
M:4/4
K:F
V:1 treble nm="Soprano" snm="S"
V:2 treble nm="Alto" snm="A"
V:3 treble-8 nm="Tenor" snm="T"
V:4 bass nm="Bass" snm="B"
V:1
 A8 | A4 G4 | B4 A4 | A4 c4 | c8 || c8 | c4 c4 | c4 A4 | d4 c4 | c8 || A8 | G4 F4 | E4 c4 | B4 G4 | %14
w: All|peo- ple|that on|earth do|dwell,|sing|to the|Lord with|cheer- ful|voice,|him|serve with|fear his|praise forth|
 A8 || A8 | F6 F2 | c4 d4 | c8 | c6 B2 | !fermata!A8 |] %21
w: tell,|come|ye be-|fore him|and|re- *|joice.|
V:2
 C8 | C4 C4 | D2 E2 F4- | F4 E4 | F8 || F8 | F4 F4 | E4 D4 | F4 F4 | E8 || C8 | E4 C4 | C6 C2 | %13
w: All|peo- ple|that on earth|_ do|dwell,|sing|to the|Lord with|cheer- ful|voice,|him|serve with|fear his|
 D4 C4 | C8 || F8 | C4 F4 | E4 F4 | F8 | E8 | !fermata!F8 |] %21
w: praise forth|tell,|come|ye be-|fore him|and|re-|joice.|
V:3
 F8 | F4 E4 | D4 C4 | F4 G4 | A8 || A8 | A4 A4 | G4 F4 | B4 A4 | G8 || F8 | G4 A4 | G4 F4 | D4 E4 | %14
w: All|peo- ple|that on|earth do|dwell,|sing|to the|Lord with|cheer- ful|voice,|him|serve with|fear his|praise forth|
 F8 || c8 | A4 F4 | G4 B4 | A8 | G8 | !fermata!F8 |] %21
w: tell,|come|ye be-|fore him|and|re-|joice.|
V:4
 F,,8 | F,,4 C,4 | G,,4 A,,4 | D,4 C,4 | F,,8 || F,8 | F,4 F,4 | C,4 D,4 | B,,4 F,4 | C,8 || F,,8 | %11
w: All|peo- ple|that on|earth do|dwell,|sing|to the|Lord wth|chee- ful|voice,|him|
 C,4 F,,4 | C,4 A,,4 | B,,4 C,4 | F,,8 || F,8 | F,4 D,4 | C,4 B,,4 | F,8 | C,8 | !fermata!F,,8 |] %21
w: serve with|fear his|praise forth|tell,|come|ye be-|fore him|and|re-|joice.|

